styles/1/Numix/32/places/purple-folder-recent.svg

<?xml version="1.0" encoding="UTF-8" standalone="no"?>
<!-- Created with Inkscape (http://www.inkscape.org/) -->

<svg
   xmlns:dc="http://purl.org/dc/elements/1.1/"
   xmlns:cc="http://creativecommons.org/ns#"
   xmlns:rdf="http://www.w3.org/1999/02/22-rdf-syntax-ns#"
   xmlns:svg="http://www.w3.org/2000/svg"
   xmlns="http://www.w3.org/2000/svg"
   xmlns:sodipodi="http://sodipodi.sourceforge.net/DTD/sodipodi-0.dtd"
   xmlns:inkscape="http://www.inkscape.org/namespaces/inkscape"
   width="32"
   height="32"
   id="svg2"
   version="1.1"
   inkscape:version="0.91 r"
   sodipodi:docname="purple-folder-recent.svg"
   inkscape:export-filename="/media/Data/Main/Visuals/Icons/Numix/Desktop/repos/numix-wiki/Gjorgi/Numix-folders/48/New/folder-144.png"
   inkscape:export-xdpi="270"
   inkscape:export-ydpi="270">
  <defs
     id="defs4" />
  <sodipodi:namedview
     id="base"
     pagecolor="#ffffff"
     bordercolor="#666666"
     borderopacity="1.0"
     inkscape:pageopacity="0.0"
     inkscape:pageshadow="2"
     inkscape:zoom="21.756347"
     inkscape:cx="12.48198"
     inkscape:cy="14.774369"
     inkscape:document-units="px"
     inkscape:current-layer="layer1"
     showgrid="true"
     inkscape:window-width="1280"
     inkscape:window-height="998"
     inkscape:window-x="0"
     inkscape:window-y="0"
     inkscape:window-maximized="1"
     showguides="true"
     inkscape:guide-bbox="true">
    <inkscape:grid
       type="xygrid"
       id="grid2985"
       empspacing="5"
       visible="true"
       enabled="true"
       snapvisiblegridlinesonly="true" />
  </sodipodi:namedview>
  <metadata
     id="metadata7">
    <rdf:RDF>
      <cc:Work
         rdf:about="">
        <dc:format>image/svg+xml</dc:format>
        <dc:type
           rdf:resource="http://purl.org/dc/dcmitype/StillImage" />
        <dc:title />
      </cc:Work>
    </rdf:RDF>
  </metadata>
  <g
     inkscape:label="Layer 1"
     inkscape:groupmode="layer"
     id="layer1"
     transform="translate(0,-1020.3622)">
    <path
       style="font-size:medium;font-style:normal;font-variant:normal;font-weight:normal;font-stretch:normal;text-indent:0;text-align:start;text-decoration:none;line-height:normal;letter-spacing:normal;word-spacing:normal;text-transform:none;direction:ltr;block-progression:tb;writing-mode:lr-tb;text-anchor:start;baseline-shift:baseline;color:#000000;fill:#7e57c2;fill-opacity:1;fill-rule:nonzero;stroke:none;stroke-width:2.28612947;marker:none;visibility:visible;display:inline;overflow:visible;enable-background:accumulate;font-family:Sans;-inkscape-font-specification:Sans"
       d="M 2.03125 4 C 1.4665378 4.056 0.99079306 4.58885 1 5.15625 L 1 26.84375 C 0.993016 27.45105 1.5489584 28.007 2.15625 28 L 29.84375 28 C 30.451042 28.01 31.006984 27.45105 31 26.84375 L 31 7.15625 C 31.007 6.54895 30.451042 5.993 29.84375 6 L 19 6 L 19 5.15625 C 19.0069 4.55935 18.471863 4.0095 17.875 4 L 2.15625 4 L 2.03125 4 z M 9 10 L 11.0625 12.0625 C 12.330566 10.80195 14.073925 10 16 10 C 19.865993 10 23 13.134 23 17 C 23 20.866 19.865993 24 16 24 C 12.134007 24 9 20.866 9 17 L 10 17 C 10 20.3137 12.686292 23 16 23 C 19.313708 23 22 20.3137 22 17 C 22 13.6863 19.313708 11 16 11 C 14.3427 11 12.835615 11.66351 11.75 12.75 L 14 15 L 9 15 L 9 10 z M 15.90625 12.46875 A 1.0001 1.0001 0 0 1 17 13.5 L 17 16.90625 L 19.09375 18.125 A 1.0077822 1.0077822 0 0 1 18.09375 19.875 L 15.625 18.4375 A 1.0001 1.0001 0 0 1 15.5 18.375 A 1.0001 1.0001 0 0 1 15.4375 18.34375 A 1.0001 1.0001 0 0 1 15.40625 18.3125 A 1.0001 1.0001 0 0 1 15.375 18.28125 A 1.0001 1.0001 0 0 1 15.3125 18.25 A 1.0001 1.0001 0 0 1 15.28125 18.21875 A 1.0001 1.0001 0 0 1 15.25 18.1875 A 1.0001 1.0001 0 0 1 15.21875 18.15625 A 1.0001 1.0001 0 0 1 15.1875 18.125 A 1.0001 1.0001 0 0 1 15.15625 18.0625 A 1.0001 1.0001 0 0 1 15.125 18.03125 A 1.0001 1.0001 0 0 1 15 17.28125 A 1.0001 1.0001 0 0 1 15 17.1875 L 15 13.5 A 1.0001 1.0001 0 0 1 15.78125 12.5 A 1.0001 1.0001 0 0 1 15.90625 12.46875 z "
       transform="translate(0,1020.3622)"
       id="path3912" />
  </g>
</svg>

<!-- Created with Inkscape (http://www.inkscape.org/) -->
<svg xmlns="http://www.w3.org/2000/svg" viewBox="0 0 32 32">
 <g transform="translate(0,-1020.3622)">
  <path d="m 2.031 4 c -0.565 0.056 -1.04 0.589 -1.031 1.156 l 0 21.688 c -0.007 0.607 0.549 1.163 1.156 1.156 l 27.688 0 c 0.607 0.01 1.163 -0.549 1.156 -1.156 l 0 -19.688 c 0.007 -0.607 -0.549 -1.163 -1.156 -1.156 l -10.844 0 l 0 -0.844 c 0.007 -0.597 -0.528 -1.147 -1.125 -1.156 l -15.719 0 l -0.125 0 z m 6.969 6 l 2.063 2.063 c 1.268 -1.261 3.01 -2.063 4.938 -2.063 c 3.866 0 7 3.134 7 7 c 0 3.866 -3.134 7 -7 7 c -3.866 0 -7 -3.134 -7 -7 l 1 0 c 0 3.314 2.686 6 6 6 c 3.314 0 6 -2.686 6 -6 c 0 -3.314 -2.686 -6 -6 -6 c -1.657 0 -3.164 0.664 -4.25 1.75 l 2.25 2.25 l -5 0 l 0 -5 z m 6.906 2.469 a 1 1 0 0 1 1.094 1.031 l 0 3.406 l 2.094 1.219 a 1.01 1.01 0 0 1 -1 1.75 l -2.469 -1.438 a 1 1 0 0 1 -0.125 -0.063 a 1 1 0 0 1 -0.063 -0.031 a 1 1 0 0 1 -0.031 -0.031 a 1 1 0 0 1 -0.031 -0.031 a 1 1 0 0 1 -0.063 -0.031 a 1 1 0 0 1 -0.031 -0.031 a 1 1 0 0 1 -0.031 -0.031 a 1 1 0 0 1 -0.031 -0.031 a 1 1 0 0 1 -0.031 -0.031 a 1 1 0 0 1 -0.031 -0.063 a 1 1 0 0 1 -0.031 -0.031 a 1 1 0 0 1 -0.125 -0.75 a 1 1 0 0 1 0 -0.094 l 0 -3.688 a 1 1 0 0 1 0.781 -1 a 1 1 0 0 1 0.125 -0.031 z" transform="translate(0,1020.3622)" style="visibility:visible;fill:#7e57c2;fill-opacity:1;stroke:none;display:inline;color:#000;fill-rule:nonzero"/>
 </g>
</svg>
